X:1
T:Laurenti, SMD
T:Laurenti, SMD
T:Chorale Book for England, 1863
T:Public Domain Courtesy of the Cyber Hymnal™
C:Chorale Book for England, 1863
Z:Public Domain
Z:Courtesy of the Cyber Hymnal™
%%score ( 1 2 ) ( 3 4 )
L:1/8
Q:1/4=112
M:4/4
K:F
V:1 treble 
V:2 treble 
V:3 bass 
V:4 bass 
V:1
 (FG) | [FA]2 [Fd]2 [Fc]2 B2 | [FA]6 [FA]2 | [Ec]2 [CF]2 [EG]2 [FA]2 | A4 [CF]2 FG | %5
 [FA]2 [Fd]2 [Fc]2 B2 | [FA]6 [FA]2 | [Ec]2 [CF]2 [EG]2 [FA]2 | A4 [CF]2 [EG]2 | %9
 G2 [^FA]2 [GB]2 [GB]2 | [FA]6 [DA]2 | [DG]2 [Cc]2 [Dc]2 [D=B]2 | [Ec]6 [Ec]2 | %13
 [Fc]2 [CA]2 [DB]2 [_Ec]2 | [Dd]4 [Fc]4 | B2 [FA]2 [FG]2 [EG]2 | !fermata![CF]4 |] %17
V:2
 F2 | x6 FE | x8 | x8 | (F2 E2) F2 x2 | x6 FE | x8 | x8 | (F2 E2) x4 | (DE) x6 | x8 | x8 | x8 | %13
 x8 | x8 | (FE) x6 | x4 |] %17
V:3
 (A,B,) | [F,C]2 [B,,B,]2 [C,A,]2 (G,C) | [F,C]6 [D,F,]2 | [C,G,]2 [A,,A,]2 [G,,B,]2 [F,,C]2 | %4
 (C3 B,) [F,A,]2 (A,B,) | [F,C]2 [B,,B,]2 [C,A,]2 (G,C) | [F,C]6 [D,F,]2 | %7
 [C,G,]2 [A,,A,]2 [G,,B,]2 [F,,C]2 | (C3 B,) [F,A,]2 [C,G,]2 | [B,,D]2 [A,,C]2 [G,,D]2 [B,,D]2 | %10
 [D,D]6 [F,A,]2 | [F,=B,]2 [E,G,]2 [F,A,]2 G,2 | [C,G,]6 G,2 | [A,,F,]2 F,2 [D,F,]2 (G,A,) | %14
 [B,,B,]4 [A,,C]4 | [G,,D]2 [A,,C]2 [B,,D]2 (CB,) | !fermata![F,A,]4 |] %17
V:4
 F,2 | x6 C,2 | x8 | x8 | C,4 F,2 x2 | x6 C,2 | x8 | x8 | C,4 x4 | x8 | x8 | x6 G,2 | x6 (C,B,,) | %13
 x2 F,2 C,2 x2 | x8 | x6 C,2 | x4 |] %17

